www/assets/icons/hevc.svg

<svg xmlns="http://www.w3.org/2000/svg" width="24" height="24" viewBox="0 0 24 24" fill='currentColor'><path d="M5.5 11h-1V9H3v6h1.5v-2.5h1V15H7V9H5.5zM21 11v-1c0-.55-.45-1-1-1h-2c-.55 0-1 .45-1 1v4c0 .55.45 1 1 1h2c.55 0 1-.45 1-1v-1h-1.5v.5h-1v-3h1v.5zm-6.75 2.5L13.5 9H12l1 6h2.5l1-6H15zM8 9v6h3.5v-1.5h-2v-1h2V11h-2v-.5h2V9z"/></svg>

<svg width="24" height="24" viewBox="0 0 24 24" xmlns="http://www.w3.org/2000/svg" fill='currentColor'><path d="M5.5 11H4.5V9H3V15H4.5V12.5H5.5V15H7V9H5.5V11Z"/><path d="M21 11V10C21 9.45 20.55 9 20 9H18C17.45 9 17 9.45 17 10V14C17 14.55 17.45 15 18 15H20C20.55 15 21 14.55 21 14V13H19.5V13.5H18.5V10.5H19.5V11H21Z"/><path d="M14.25 13.5L13.5 9H12L13 15H15.5L16.5 9H15L14.25 13.5Z"/><path d="M8 9V15H11.5V13.5H9.5V12.5H11.5V11H9.5V10.5H11.5V9H8Z"/></svg>
